img/reliable-icon.svg

<svg width="40" height="40" viewBox="0 0 40 40" fill="none" xmlns="http://www.w3.org/2000/svg">
<path d="M18.12 1.73018C24.88 4.88318 26.443 8.81618 26.776 10.8802C27.152 13.2362 26.321 15.0172 25.493 15.8242C24.655 16.6442 23.771 17.0582 22.865 17.0582C22.604 17.0582 22.359 17.0232 22.132 16.9652L17.161 2.48018C17.1438 2.35495 17.1593 2.22739 17.2061 2.10996C17.2529 1.99253 17.3294 1.88924 17.428 1.81018L18.12 1.73018ZM18.12 1.72818C18.0083 1.67673 17.8846 1.65716 17.7624 1.67163C17.6403 1.6861 17.5246 1.73405 17.428 1.81018L18.12 1.72818ZM18.12 1.72818L17.908 2.18118C24.528 5.27118 25.977 9.06918 26.282 10.9572C26.635 13.1652 25.848 14.7792 25.144 15.4652H25.143C24.371 16.2222 23.606 16.5572 22.865 16.5572C22.6461 16.5568 22.4281 16.5272 22.217 16.4692C22.891 12.2842 22.289 9.27118 21.109 6.18918C21.0547 6.04055 20.971 5.90436 20.8629 5.78873C20.7549 5.6731 20.6247 5.58039 20.4801 5.5161C20.3355 5.45182 20.1794 5.41728 20.0212 5.41455C19.8629 5.41181 19.7058 5.44094 19.559 5.50018L19.552 5.50318C19.2608 5.63028 19.0301 5.86513 18.9082 6.15854C18.7863 6.45194 18.7826 6.78115 18.898 7.07718C20.023 10.0172 20.532 12.7172 19.761 16.7412C19.299 16.8802 18.841 16.9992 18.406 16.9992C17.27 16.9992 16.339 16.6322 15.641 15.9942C14.941 15.3542 14.445 14.4132 14.241 13.2192C13.713 10.1252 15.065 7.97518 16.241 6.12718L16.263 6.09218C16.647 5.48818 17.029 4.88618 17.295 4.30218C17.568 3.70418 17.744 3.07218 17.656 2.41418C17.6502 2.3751 17.6545 2.33519 17.6685 2.29825C17.6825 2.26131 17.7057 2.22857 17.736 2.20318L17.428 1.81018L18.12 1.72818ZM18.12 1.72818L17.909 2.18218C17.8809 2.16926 17.8498 2.16409 17.819 2.16718C17.789 2.17173 17.7607 2.18415 17.737 2.20318L17.428 1.81018L18.12 1.72818ZM21.559 17.3022C21.5153 17.2846 21.472 17.2663 21.429 17.2472L21.324 17.2022C21.233 17.2522 21.138 17.2992 21.041 17.3432L21.559 17.3022ZM21.559 17.3022L21.16 16.7202C21.146 16.7982 21.1317 16.8762 21.117 16.9542L21.056 17.0592L21.093 17.0802L21.041 17.3432L21.559 17.3022ZM21.559 17.3022C21.2952 18.6115 20.9566 19.9046 20.545 21.1752L21.559 17.3022ZM21.559 17.3022L20.545 21.1752L21.559 17.3022ZM21.041 17.3432C20.7844 18.5863 20.4599 19.8145 20.069 21.0222L21.041 17.3432ZM21.041 17.3432C20.905 17.4053 20.7665 17.462 20.626 17.5132L21.041 17.3432ZM20.069 21.0222L20.626 17.5122L20.069 21.0222ZM20.069 21.0222C20.037 21.1212 19.957 21.1662 19.891 21.1662C19.8759 21.1658 19.861 21.1628 19.847 21.1572L19.838 21.1542C19.753 21.1242 19.675 21.0082 19.718 20.8702C20.0744 19.7701 20.3761 18.6531 20.622 17.5232L20.069 21.0222ZM20.069 21.0222L20.622 17.5222L20.069 21.0222ZM20.626 17.5122L20.624 17.5222H20.622L20.626 17.5122ZM20.626 17.5122L20.622 17.5222L20.626 17.5122ZM20.545 21.1752C20.502 21.3157 20.4155 21.439 20.298 21.5272C20.1805 21.6155 20.038 21.6641 19.891 21.6662C19.8179 21.6655 19.7454 21.652 19.677 21.6262C19.315 21.5032 19.122 21.0962 19.241 20.7192L20.545 21.1752ZM3.26101 25.0002L3.66201 24.7022L3.65001 24.6852L3.63701 24.6702L3.50401 24.5202C3.12501 24.0922 2.82601 23.7532 2.59601 23.2752C2.34601 22.7552 2.16701 22.0342 2.16701 20.8342V10.8342C2.16701 10.1172 2.40201 9.63018 2.72701 9.32118C3.05701 9.00718 3.52501 8.83418 4.05801 8.83418C4.59101 8.83418 5.05801 9.00718 5.38901 9.32118C5.71401 9.63118 5.94901 10.1172 5.94901 10.8342V17.9692C5.91665 17.9863 5.88497 18.0047 5.85401 18.0242C5.67813 18.1396 5.52154 18.282 5.39001 18.4462C5.07826 18.8397 4.86378 19.3012 4.76401 19.7932C4.52701 20.9002 4.77901 22.3162 6.07201 23.6832L9.56801 27.5862L9.57101 27.5902C9.67557 27.7074 9.80375 27.8012 9.94714 27.8653C10.0905 27.9295 10.2459 27.9625 10.403 27.9623C10.56 27.9621 10.7153 27.9287 10.8585 27.8642C11.0018 27.7997 11.1297 27.7057 11.234 27.5882C11.4406 27.356 11.5544 27.0559 11.5539 26.7451C11.5533 26.4343 11.4384 26.1346 11.231 25.9032L7.41301 21.6612L7.41001 21.6582C6.87801 21.0782 6.87501 20.1432 7.42301 19.5432L7.42401 19.5422C7.49601 19.4622 7.73901 19.2412 8.07601 19.1802C8.36901 19.1272 8.85101 19.1742 9.48601 19.8362L13.301 24.0912L13.306 24.0962L13.311 24.1012C14.946 25.8212 16.311 27.9462 16.311 30.8332V37.5002C16.311 37.5962 16.311 37.6602 16.304 37.7182C16.302 37.7429 16.2963 37.7672 16.287 37.7902C16.2004 37.8237 16.1078 37.8387 16.015 37.8342H9.63801C9.59656 37.8347 9.55513 37.8324 9.51401 37.8272C9.476 37.823 9.43889 37.8129 9.40401 37.7972C9.38929 37.7915 9.37671 37.7814 9.36801 37.7682C9.36301 37.7602 9.34101 37.7202 9.34101 37.6182V32.3362L9.24401 32.2042C8.83201 31.6442 7.43501 29.7682 6.14401 28.0332L4.41801 25.7162L3.86801 24.9782L3.71601 24.7732L3.67601 24.7202L3.66601 24.7062L3.66301 24.7032V24.7022L3.26101 25.0002ZM34.051 17.9692V10.8342C34.051 10.1172 34.286 9.63018 34.611 9.32118C34.941 9.00718 35.409 8.83418 35.942 8.83418C36.475 8.83418 36.942 9.00718 37.273 9.32118C37.598 9.63118 37.833 10.1172 37.833 10.8342V20.8342C37.833 22.0342 37.655 22.7542 37.405 23.2752C37.175 23.7532 36.875 24.0922 36.497 24.5202L36.364 24.6702L36.351 24.6852L36.339 24.7022L36.739 25.0002L36.339 24.7022H36.338L36.335 24.7062L36.325 24.7202L36.285 24.7732L36.133 24.9782L35.583 25.7162L33.857 28.0332C32.8215 29.4216 31.7882 30.8116 30.757 32.2032L30.66 32.3362V37.6172C30.66 37.7202 30.638 37.7602 30.632 37.7682C30.6238 37.7808 30.612 37.7906 30.598 37.7962C30.5628 37.812 30.5254 37.8221 30.487 37.8262C30.4459 37.8314 30.4045 37.8337 30.363 37.8332H23.986C23.8933 37.838 23.8007 37.8234 23.714 37.7902C23.7048 37.7672 23.6991 37.7429 23.697 37.7182C23.6898 37.6457 23.6871 37.5729 23.689 37.5002V30.8332C23.689 27.9462 25.054 25.8202 26.689 24.1012L26.695 24.0962L26.7 24.0912L30.515 19.8362C31.15 19.1742 31.632 19.1272 31.925 19.1802C32.262 19.2402 32.505 19.4602 32.581 19.5432C33.126 20.1432 33.123 21.0782 32.593 21.6592L32.591 21.6612L28.77 25.9042H28.768C28.5613 26.1359 28.4471 26.4356 28.4471 26.7462C28.4471 27.0567 28.5613 27.3564 28.768 27.5882C28.8723 27.7055 29.0002 27.7994 29.1433 27.8638C29.2865 27.9282 29.4416 27.9616 29.5986 27.9618C29.7555 27.962 29.9107 27.9289 30.054 27.8649C30.1973 27.8009 30.3255 27.7072 30.43 27.5902L30.433 27.5862L33.928 23.6822C35.222 22.3162 35.473 20.9002 35.237 19.7932C35.1368 19.3014 34.922 18.8403 34.61 18.4472C34.4786 18.2827 34.322 18.1399 34.146 18.0242C34.1151 18.0046 34.0834 17.9863 34.051 17.9692Z" fill="#2C70C1" stroke="#2C70C1"/>
</svg>

<svg width="40" height="40" fill="none" xmlns="http://www.w3.org/2000/svg"><path d="M18.12 1.73c6.76 3.153 8.323 7.086 8.656 9.15.376 2.356-.455 4.137-1.283 4.944-.838.82-1.722 1.234-2.628 1.234-.261 0-.506-.035-.733-.093L17.161 2.48a.731.731 0 01.267-.67l.692-.08zm0-.002a.667.667 0 00-.692.082l.692-.082zm0 0l-.212.453c6.62 3.09 8.069 6.888 8.374 8.776.353 2.208-.434 3.822-1.138 4.508h-.001c-.772.757-1.537 1.092-2.278 1.092-.219 0-.437-.03-.648-.088.674-4.185.072-7.198-1.108-10.28a1.179 1.179 0 00-1.55-.689l-.007.003a1.23 1.23 0 00-.654 1.574c1.125 2.94 1.634 5.64.863 9.664-.462.14-.92.258-1.355.258-1.136 0-2.067-.367-2.765-1.005-.7-.64-1.196-1.58-1.4-2.775-.528-3.094.824-5.244 2-7.092l.022-.035c.384-.604.766-1.206 1.032-1.79.273-.598.449-1.23.361-1.888a.231.231 0 01.08-.21l-.308-.394.692-.082zm0 0l-.211.454a.174.174 0 00-.09-.015.172.172 0 00-.082.036l-.309-.393.692-.082zm3.439 15.574a4.015 4.015 0 01-.13-.055l-.105-.045c-.091.05-.186.097-.283.141l.518-.04zm0 0l-.399-.582-.043.234-.061.105.037.021-.052.263.518-.04zm0 0a34.998 34.998 0 01-1.014 3.873l1.014-3.873zm0 0l-1.014 3.873 1.014-3.873zm-.518.041a34.778 34.778 0 01-.972 3.68l.972-3.68zm0 0a5.687 5.687 0 01-.415.17l.415-.17zm-.972 3.68l.557-3.51-.557 3.51zm0 0c-.032.098-.112.143-.178.143a.127.127 0 01-.044-.009l-.009-.003c-.085-.03-.163-.146-.12-.284.356-1.1.658-2.217.904-3.347l-.553 3.5zm0 0l.553-3.5-.553 3.5zm.557-3.51l-.002.01h-.002l.004-.01zm0 0l-.004.01.004-.01zm-.081 3.662a.694.694 0 01-.654.491.623.623 0 01-.214-.04c-.362-.123-.555-.53-.436-.907l1.304.456zM3.261 25l.401-.298-.012-.017-.013-.015-.133-.15c-.379-.428-.678-.767-.908-1.245-.25-.52-.429-1.24-.429-2.44v-10c0-.718.235-1.205.56-1.514.33-.314.798-.487 1.331-.487.533 0 1 .173 1.331.487.325.31.56.796.56 1.513v7.135a1.446 1.446 0 00-.095.055 2 2 0 00-.464.422 3.19 3.19 0 00-.626 1.347c-.237 1.107.015 2.523 1.308 3.89l3.496 3.903.003.004a1.113 1.113 0 001.663-.002 1.265 1.265 0 00-.003-1.685l-3.818-4.242-.003-.003c-.532-.58-.535-1.515.013-2.115h.001c.072-.08.315-.302.652-.363.293-.053.775-.006 1.41.656l3.815 4.255.005.005.005.005c1.635 1.72 3 3.845 3 6.732V37.5c0 .096 0 .16-.007.218a.245.245 0 01-.017.072.664.664 0 01-.272.044H9.638a.902.902 0 01-.124-.007.366.366 0 01-.11-.03.076.076 0 01-.036-.029c-.005-.008-.027-.048-.027-.15v-5.282l-.097-.132c-.412-.56-1.809-2.436-3.1-4.17l-1.726-2.318-.55-.738-.152-.205-.04-.053-.01-.014-.003-.003v0L3.261 25zm30.79-7.03v-7.136c0-.717.235-1.204.56-1.513.33-.314.798-.487 1.331-.487.533 0 1 .173 1.331.487.325.31.56.796.56 1.513v10c0 1.2-.178 1.92-.428 2.441-.23.478-.53.817-.908 1.245l-.133.15-.013.015-.012.017.4.298-.4-.298h-.001l-.003.004-.01.014-.04.053-.152.205-.55.738-1.726 2.317a1679.026 1679.026 0 00-3.1 4.17l-.097.133v5.281c0 .103-.022.143-.028.151a.073.073 0 01-.034.028.366.366 0 01-.111.03.901.901 0 01-.124.007h-6.377a.664.664 0 01-.272-.043.251.251 0 01-.017-.072 1.745 1.745 0 01-.008-.218v-6.667c0-2.887 1.365-5.013 3-6.732l.006-.005.005-.005 3.815-4.255c.635-.662 1.117-.709 1.41-.656.337.06.58.28.656.363.545.6.542 1.535.012 2.116l-.002.002-3.821 4.243h-.002a1.265 1.265 0 000 1.684 1.114 1.114 0 001.662.002l.003-.004 3.495-3.904c1.294-1.366 1.545-2.782 1.309-3.889a3.19 3.19 0 00-.627-1.346 2 2 0 00-.464-.423 1.378 1.378 0 00-.095-.055z" fill="#2C70C1" stroke="#2C70C1"/></svg>
